!!!!SEGMENT: pl-kk--kk-i-69--007_anonim--protexisti-pro-festo-sanctus.krn
!!!cenid: 17xx:2288
!!!COM: Anonim
!!!COM-rismID: pe30004985
!!!CDT:
!!!CNT:
!!!OPR: Protexisti pro festo
!!!OTL: Sanctus
!!!OMV: 007
!!!PDT:
!!!AGN: Sacred; Mass
!!!SMS-siglum: PL-Kk
!!!SMS-shelfmark: Kk.I.69
!!!SMS-shelfwork: 001-007 M
!!!SMS-variant:
!!!SMS-altvar:
!!!NIFC-rismSourceID: 1001154789
!!!NIFC-rismChildID: 1001154789
!!!NIFC-islandoraID: pl-kk:15747
!!!URL-pdf-islandora: https://repozytorium.nifc.pl/islandora/object/pl-kk%3A15747/datastream/PDF/view
!!!URL-scan: https://polish.musicsources.pl/pl/lokalizacje/galeria/rekopisy/7324/1 @EN{Scan on Polish Music Sources Website} @PL{Skany w portalu Dziedzictwo Muzyki Polskiej w otwartym dostępie}
!!!IIIF:
!!!ONB-nifc: UWAGA: części Mszy: 1. Protexisti me, 2. Kyrie, 3. Et in terra, 4. Alleluia, 5. Patrem, 6. Posuisti Domine, 7. Sanctus, 8. Benedictus, 9. Agnus Dei, 10. Dona nobis, 11. Deo gratias
!!!AIN: 1 empty 2 tenor
!!!key:
**kern	**text	**kern	**text	**kern	**text
*part3	*part3	*part2	*part2	*part1	*part1
*staff3	*staff3	*staff2	*staff2	*staff1	*staff1
*Iempty	*	*Itenor	*	*Itenor	*
*I"Baſso	*	*I"Tenore Secundo	*	*I"Tenore Primo	*
*I'B	*	*I'T 2	*	*I'T 1	*
*clefF4	*	*clefC4	*	*clefC4	*
*k[]	*	*k[]	*	*k[]	*
*C:	*	*C:	*	*C:	*
*M2/2	*	*M2/2	*	*M2/2	*
*met(c|)	*	*met(c|)	*	*met(c|)	*
*2\right	*	*2\right	*	*2\right	*
=1	=1	=1	=1	=1	=1
4C/	San-	4e\	San-	4g\	San-
4D/	.	4d\	.	4f\	.
4E/	.	4c\	.	4e\	.
4C/	.	4e\	.	4g\	.
=2	=2	=2	=2	=2	=2
1G	.	4d\	.	4f\	.
.	.	4c\	.	4e\	.
.	.	4B\	.	4d\	.
.	.	4d\	.	4f\	.
=3	=3	=3	=3	=3	=3
4c\	.	4c\	.	4e\	.
4G\	.	4d\	.	4f\	.
4E\	.	4e\	.	4g\	.
4C/	.	8d\L	.	8f\L	.
.	.	8c\J	.	8e\J	.
=4	=4	=4	=4	=4	=4
4G\	.	2B\	.	2d\	.
4F\	.	.	.	.	.
4E\	.	2c\	.	[2e\	.
4F\	.	.	.	.	.
=5	=5	=5	=5	=5	=5
1G	.	2c\	.	2e\]	.
.	.	2B\	.	2d\	.
=6	=6	=6	=6	=6	=6
1C	-crus	1G	-ctus	1e	-ctus
=7||	=7||	=7||	=7||	=7||	=7||
!LO:LB:g=original	!	!LO:LB:g=original	!	!LO:LB:g=original	!
1G	San-	4B\	San-	4d\	San-
.	.	4c\	.	4e\	.
.	.	4d\	.	4f\	.
.	.	4B\	.	4d\	.
=8	=8	=8	=8	=8	=8
4c\	.	4c\	.	4e\	.
4G\	.	4d\	.	4f\	.
4E\	.	4e\	.	4g\	.
4C/	.	4c\	.	4e\	.
=9	=9	=9	=9	=9	=9
1G	.	4B\	.	4d\	.
.	.	4c\	.	4e\	.
.	.	4d\	.	4f\	.
.	.	4c\	.	4e\	.
=10	=10	=10	=10	=10	=10
1G	-ctus	1B	-ctus	1d	-ctus
=11||	=11||	=11||	=11||	=11||	=11||
4G\	San-	2B\	San-	2g\	San-
4A\	.	.	.	.	.
4B\	.	2d\	.	2f\	.
4G\	.	.	.	.	.
=12	=12	=12	=12	=12	=12
2c\	.	2c\	.	2e\	.
2C/	-ctus	2G/	-ctus	2e\	-ctus
=13	=13	=13	=13	=13	=13
4G\	Do-	4B\	Do-	4d\	Do-
4G\	-mi-	4B\	-mi-	4d\	-mi-
2c\	-nus	2G/	-nus	2e\	-nus
=14	=14	=14	=14	=14	=14
!	!	!LO:LB:g=original	!	!LO:LB:g=original	!
2G\	De-	2B\	De-	2f\	De-
2C/	-us	2G/	-us	2e\	-us
=15	=15	=15	=15	=15	=15
!LO:LB:g=original	!	!	!	!	!
2F\	Sa-	2A\	Sa-	4d\	Sa-
.	.	.	.	8e\L	.
.	.	.	.	8f\J	.
4G\	.	4c\	.	4e\	.
4G\	-ba-	4B\	-ba-	4d\	-ba-
=16	=16	=16	=16	=16	=16
4C/	-oth	4c\	-oth	4e\	-oth
4r	.	4r	.	4e\	Ple-
2r	.	2r	.	4d\	-ni
.	.	.	.	4c\	sunt
=17	=17	=17	=17	=17	=17
1r	.	4r	.	2g\	Cae-
.	.	4B\	Ple-	.	.
.	.	4A\	-ni	2g\	-li
.	.	4G\	sunt	.	.
=18	=18	=18	=18	=18	=18
4r	.	2c\	Ple-	2g\	Ple-
4E\	Ple-	.	.	.	.
4D\	-ni	4d\	-ni	4g\	-ni
4C\	sunt	4e\	sunt	4g\	sunt
=19	=19	=19	=19	=19	=19
4G\	cae-	2d\	cae-	2f\	cae-
4A\	.	.	.	.	.
4B\	-li	4d\	-li	4f\	-li
4G\	et	4d\	et	4f\	et
=20	=20	=20	=20	=20	=20
!	!	!	!	!LO:LB:g=original	!
2c\	ter-	2c\	ter-	2e\	ter-
2C/	-ra	2G/	-ra	2e\	-ra
=21	=21	=21	=21	=21	=21
!	!	!LO:LB:g=original	!	!	!
4G\	glo-	4B\	glo-	4d\	glo-
4F\	.	4d\	.	4f\	.
4E\	.	4c\	.	4e\	.
4C/	.	4e\	.	4g\	.
=22	=22	=22	=22	=22	=22
!LO:LB:g=original	!	!	!	!	!
2G\	.	2d\	.	2f\	.
4c\	-ri-	4G/	-ri-	4e\	-ri-
4c\	-a	4G/	-a	4e\	-a
=23	=23	=23	=23	=23	=23
1G	tu-	2c\	tu-	2e\	tu-
.	.	2B\	.	2d\	.
=24	=24	=24	=24	=24	=24
1C	-a	1G	-a	1e	-a
=25||	=25||	=25||	=25||	=25||	=25||
*M2/2	*	*M2/2	*	*M2/2	*
*met(c|)	*	*met(c|)	*	*met(c|)	*
!LO:LB:g=original	!	!LO:LB:g=original	!	!LO:LB:g=original	!
4C/	O-	1G	O-	1e	O-
4D/	.	.	.	.	.
4E/	.	.	.	.	.
4F/	.	.	.	.	.
=26	=26	=26	=26	=26	=26
2G\	-san-	2B\	-san-	2d\	-san-
2c\	-na	2c\	-na	2e\	-na
=27	=27	=27	=27	=27	=27
2G\	in	4d\	in	4f\	in
.	.	4c\	.	4e\	.
2G\	ex-	4d\	ex-	4f\	ex-
.	.	4B\	.	4d\	.
=28	=28	=28	=28	=28	=28
4E\	-cel-	4c\	-cel-	4e\	-cel-
4D\	.	4d\	.	4f\	.
2C/	-sis	2e\	-sis	2g\	-sis
=29	=29	=29	=29	=29	=29
1C	o-	2e\	o-	2g\	o-
.	.	4f\	.	4a\	.
.	.	4e\	.	4g\	.
=30	=30	=30	=30	=30	=30
4G\	-san-	2d\	-san-	2f\	-san-
4B\	.	.	.	.	.
2c\	-na	2c\	-na	2e\	-na
=31	=31	=31	=31	=31	=31
!	!	!LO:LB:g=original	!	!	!
4G\	in	4B\	in	4d\	in
4G\	ex-	4c\	ex-	4e\	ex-
!	!	!	!	!LO:LB:g=original	!
2G\	-cel-	4d\	-cel-	4f\	-cel-
.	.	4c\	.	4e\	.
=32	=32	=32	=32	=32	=32
2G\	-sis	2B\	-sis	2d\	-sis
2r	.	2r	.	2r	.
=33	=33	=33	=33	=33	=33
4G\	O-	4B\	O-	1f	O-
4A\	.	4c\	.	.	.
4B\	.	4d\	.	.	.
4G\	.	4B\	.	.	.
=34	=34	=34	=34	=34	=34
2C/	-san-	2c\	-san-	2e\	-san-
2c\	-na	2e\	-na	2g\	-na
=35	=35	=35	=35	=35	=35
4B\	in	4d\	in	2f\	in
4A\	.	4c\	.	.	.
4G\	ex-	4B\	ex-	2f\	ex-
4B\	.	4c\	.	.	.
=36	=36	=36	=36	=36	=36
2c\	-cel-	2c\	-cel-	2e\	-cel-
2C/	-sis	2e\	-sis	2g\	-sis
=37	=37	=37	=37	=37	=37
!LO:LB:g=original	!	!LO:LB:g=original	!	!	!
2.F\	in	4f\	in	4a\	in
.	.	4e\	.	4g\	.
.	.	4d\	ex-	4f\	ex-
4F#X\	ex-	4c\	.	4e\	.
=38	=38	=38	=38	=38	=38
4G\	-cel-	2B\	-cel-	2d\	-cel-
4Fn\	.	.	.	.	.
4E\	.	2c\	.	2e\	.
4F\	.	.	.	.	.
=39	=39	=39	=39	=39	=39
!	!	!	!	!LO:LB:g=original	!
1G	.	2c\	.	1d	.
.	.	2B\	.	.	.
=40	=40	=40	=40	=40	=40
1C	-sis.	1G	-sis	1e	-sis
==	==	==	==	==	==
*-	*-	*-	*-	*-	*-
!!!system-decoration: [(s1,s2,s3)]
!!!ENC: Kamil Watkowski
!!!END: 2021-08-06
!!!YEC: Copyright 2022 Narodowy Instytut Fryderyka Chopina (https://polishscores.org)
!!!YEM: License CC-BY-4.0 (https://creativecommons.org/licenses/by/4.0)
